icon/fa/toilet-paper.svg

<svg xmlns="http://www.w3.org/2000/svg" viewBox="0 0 576 512"><!--! Font Awesome Free 6.1.2 by @fontawesome - https://fontawesome.com License - https://fontawesome.com/license/free (Icons: CC BY 4.0, Fonts: SIL OFL 1.1, Code: MIT License) Copyright 2022 Fonticons, Inc.--><path d="M127.1 0C74.98 0 31.98 86 31.98 192v172.1c0 41.12-9.751 62.75-31.13 126.9-3.5 10.2 4.251 21 15.13 21h280.9c13.88 0 26-8.75 30.38-21.88 12.88-38.5 24.75-72.37 24.75-126L351.1 192c0-83.62 23.62-153.5 60.5-192H127.1zM95.99 224c-8.88 0-16-7.1-16-16s7.12-16 16-16 16 7.125 16 16-7.09 16-16 16zm63.11 0c-8.875 0-16-7.125-16-16s8-16 16-16 16 7.125 16 16-6.2 16-16 16zm64 0c-8 0-16-7.1-16-16s8-16 16-16c8.875 0 16 7.125 16 16s-6.2 16-16 16zm64 0c-8 0-16-7.1-16-16s8-16 16-16c8.875 0 16 7.125 16 16s-6.2 16-16 16zm192-224c-53 0-96 86.06-96 192.1 0 106 43 191.9 96 191.9S576 298 576 192 532.1 0 479.1 0zm0 256c-17.63 0-32-28.62-32-64s14.38-64 32-64c17.63 0 32 28.62 32 64s-13.5 64-32 64z"/></svg>

<svg xmlns="http://www.w3.org/2000/svg" viewBox="0 0 576 512" height="1em" width="1em">
<!--! Font Awesome Free 6.1.2 by @fontawesome - https://fontawesome.com License - https://fontawesome.com/license/free (Icons: CC BY 4.0, Fonts: SIL OFL 1.1, Code: MIT License) Copyright 2022 Fonticons, Inc.-->
  <path d="M127.1 0C74.98 0 31.98 86 31.98 192v172.1c0 41.12-9.751 62.75-31.13 126.9C-2.65 501.2 5.101 512 15.98 512h280.9c13.88 0 26-8.75 30.38-21.88c12.88-38.5 24.75-72.37 24.75-126L351.1 192c0-83.62 23.62-153.5 60.5-192H127.1zM95.99 224C87.11 224 79.99 216.9 79.99 208S87.11 192 95.99 192s16 7.125 16 16S104.9 224 95.99 224zM159.1 224c-8.875 0-16-7.125-16-16S151.1 192 159.1 192s16 7.125 16 16S168.9 224 159.1 224zM223.1 224C215.1 224 207.1 216.9 207.1 208S215.1 192 223.1 192c8.875 0 16 7.125 16 16S232.9 224 223.1 224zM287.1 224C279.1 224 271.1 216.9 271.1 208S279.1 192 287.1 192c8.875 0 16 7.125 16 16S296.9 224 287.1 224zM479.1 0c-53 0-96 86.06-96 192.1C383.1 298.1 426.1 384 479.1 384S576 298 576 192C576 86 532.1 0 479.1 0zM479.1 256c-17.63 0-32-28.62-32-64s14.38-64 32-64c17.63 0 32 28.62 32 64S497.6 256 479.1 256z"/>
</svg>
